svgs/terraria.svg

<svg width="192" height="192" viewBox="0 0 192 192" fill="none" xmlns="http://www.w3.org/2000/svg">
<path d="M104.606 82V147.797C104.092 155.765 113.964 157.87 119 157.889V170H74V157.889C76.9674 157.889 88.4457 157.889 88.0217 148.5V86" stroke="black" stroke-width="8" stroke-linecap="round" stroke-linejoin="round"/>
<path d="M40.5714 96.4286H33.7143L29.7143 99.8571L32.5714 103.857L28 110.143L32.5714 115.857L30.8571 120.429H35.4286C38.6286 120.429 36.7619 122.333 35.4286 123.286L40.5714 126.143L45.1429 123.857L48 126.143L53.1429 123.286V117.571H60V111.857L57.7143 108.429L60 105.571V98.7143L50.2857 94.1429L45.7143 96.4286L42.2857 93L40.5714 96.4286Z" stroke="black" stroke-width="6" stroke-linecap="round" stroke-linejoin="round"/>
<path d="M130.521 107.43L128.176 113.873L130.03 118.805L134.766 117.488L139.109 123.933L146.042 121.592L149.752 124.766L151.315 120.471C152.41 117.464 153.561 119.869 154 121.448L158.444 117.592L157.859 112.515L160.984 110.612L160.059 104.802L154.689 102.848L157.034 96.4039L151.665 94.4495L147.661 95.4247L145.758 92.2997L139.314 89.9544L131.696 97.5193L132.28 102.597L127.886 104.646L130.521 107.43Z" stroke="black" stroke-width="6" stroke-linecap="round" stroke-linejoin="round"/>
<path d="M136.568 51.4892V66.7338L128.946 69.0791L131.878 72.0108L124.255 76.7014L120.737 81.9784L114.288 78.4604C113.701 78.6559 111.825 79.7504 109.011 82.5647C106.196 85.3791 105.102 81.3921 104.906 79.0468L97.8705 84.9101H86.1439L84.9712 78.4604H81.4532L79.1079 83.7374L74.4173 84.3237V79.0468L71.4856 74.3561L67.9676 76.7014L62.6906 72.0108V66.7338H58.5863V59.1115H63.277L63.8633 55.0072L58 51.4892L61.518 45.0396L65.6223 44.4532L67.9676 40.9352C67.7722 39.3717 66.795 36.1273 64.4496 35.6583C62.1043 35.1892 63.0815 33.1175 63.8633 32.1403L72.0719 27.4496L75.5899 23.3453H82.0396L86.1439 27.4496L90.2482 24.518C91.6163 23.5408 95.0561 22.1727 97.8705 24.518C100.685 26.8633 101.388 25.4952 101.388 24.518V21H106.665V26.277L110.77 28.6223H114.288L117.219 26.277L123.083 32.7266H126.014V36.2446H128.946V39.1763H131.878V43.2806L136.568 42.6942V46.2122H139.5V49.1439L136.568 51.4892Z" stroke="black" stroke-width="6" stroke-linecap="round" stroke-linejoin="round"/>
<path d="M57 168V161" stroke="black" stroke-width="8" stroke-linecap="round" stroke-linejoin="round"/>
<path d="M166 168V161" stroke="black" stroke-width="8" stroke-linecap="round" stroke-linejoin="round"/>
<path d="M151 168V161" stroke="black" stroke-width="8" stroke-linecap="round" stroke-linejoin="round"/>
<path d="M136 168V161" stroke="black" stroke-width="8" stroke-linecap="round" stroke-linejoin="round"/>
<path d="M27 168V161" stroke="black" stroke-width="8" stroke-linecap="round" stroke-linejoin="round"/>
<path d="M42 168V161" stroke="black" stroke-width="8" stroke-linecap="round" stroke-linejoin="round"/>
<path d="M87 138L60.5 117.5" stroke="black" stroke-width="8" stroke-linecap="round" stroke-linejoin="round"/>
<path d="M105.5 148L134 119" stroke="black" stroke-width="8" stroke-linecap="round" stroke-linejoin="round"/>
</svg>

<svg width="192" height="192" viewBox="0 0 192 192" fill="none" xmlns="http://www.w3.org/2000/svg"><path d="M104.606 82v65.797c-.514 7.968 9.358 10.073 14.394 10.092V170H74v-12.111c2.967 0 14.446 0 14.022-9.389V86" stroke="#000" stroke-width="8" stroke-linecap="round" stroke-linejoin="round"/><path d="M40.571 96.429h-6.857l-4 3.428 2.857 4L28 110.143l4.571 5.714-1.714 4.572h4.572c3.2 0 1.333 1.904 0 2.857l5.142 2.857 4.572-2.286L48 126.143l5.143-2.857v-5.715H60v-5.714l-2.286-3.428L60 105.571v-6.857l-9.714-4.571-4.572 2.286L42.286 93l-1.715 3.429ZM130.521 107.43l-2.345 6.443 1.854 4.932 4.736-1.317 4.343 6.445 6.933-2.341 3.71 3.174 1.563-4.295c1.095-3.007 2.246-.602 2.685.977l4.444-3.856-.585-5.077 3.125-1.903-.925-5.81-5.37-1.954 2.345-6.444-5.369-1.954-4.004.975-1.903-3.125-6.444-2.346-7.618 7.565.584 5.078-4.394 2.049 2.635 2.784ZM136.568 51.49v15.244l-7.622 2.345 2.932 2.932-7.623 4.69-3.518 5.277-6.449-3.518c-.587.196-2.463 1.29-5.277 4.105-2.815 2.814-3.909-1.173-4.105-3.518l-7.035 5.863H86.144l-1.173-6.45h-3.518l-2.345 5.277-4.69.587v-5.277l-2.932-4.69-3.518 2.344-5.277-4.69v-5.277h-4.105v-7.622h4.691l.586-4.105L58 51.49l3.518-6.45 4.104-.586 2.346-3.518c-.196-1.563-1.173-4.808-3.518-5.277-2.346-.469-1.369-2.54-.587-3.518l8.209-4.69 3.518-4.105h6.45l4.104 4.105 4.104-2.932c1.368-.977 4.808-2.345 7.623 0 2.814 2.345 3.517.977 3.517 0V21h5.277v5.277l4.105 2.345h3.518l2.931-2.345 5.864 6.45h2.931v3.518h2.932v2.931h2.932v4.105l4.69-.587v3.518h2.932v2.932l-2.932 2.345Z" stroke="#000" stroke-width="6" stroke-linecap="round" stroke-linejoin="round"/><path d="M57 168v-7M166 168v-7M151 168v-7M136 168v-7M27 168v-7M42 168v-7M87 138l-26.5-20.5M105.5 148l28.5-29" stroke="#000" stroke-width="8" stroke-linecap="round" stroke-linejoin="round"/></svg>
